common/src/main/resources/icons/plugins/resharper/ChangesView/TimePeriodOlder.svg

<svg xmlns="http://www.w3.org/2000/svg" width="16" height="16" data-big="true" viewBox="0 0 24 24"><path fill="#81C784" d="m21.7 20.26-1.41 1.41-3.23-3.17L16 20.97 14 14l7 2-2.53 1.03zM19 8H5v11h8.41l.56 2H5a2 2 0 0 1-2-2V5a2 2 0 0 1 2-2h1V1h2v2h8V1h2v2h1c1.1 0 2 .9 2 2v8.95l-2-.6zm-7 2v5H7v-5z"/></svg>

<!--
  - The MIT License (MIT)
  -
  - Copyright (c) 2015-2024 Elior "Mallowigi" Boukhobza
  -
  - Permission is hereby granted, free of charge, to any person obtaining a copy
  - of this software and associated documentation files (the "Software"), to deal
  - in the Software without restriction, including without limitation the rights
  - to use, copy, modify, merge, publish, distribute, sublicense, and/or sell
  - copies of the Software, and to permit persons to whom the Software is
  - furnished to do so, subject to the following conditions:
  -
  - The above copyright notice and this permission notice shall be included in all
  - copies or substantial portions of the Software.
  -
  - THE SOFTWARE IS PROVIDED "AS IS", WITHOUT WARRANTY OF ANY KIND, EXPRESS OR
  - IMPLIED, INCLUDING BUT NOT LIMITED TO THE WARRANTIES OF MERCHANTABILITY,
  - FITNESS FOR A PARTICULAR PURPOSE AND NONINFRINGEMENT. IN NO EVENT SHALL THE
  - AUTHORS OR COPYRIGHT HOLDERS BE LIABLE FOR ANY CLAIM, DAMAGES OR OTHER
  - LIABILITY, WHETHER IN AN ACTION OF CONTRACT, TORT OR OTHERWISE, ARISING FROM,
  - OUT OF OR IN CONNECTION WITH THE SOFTWARE OR THE USE OR OTHER DEALINGS IN THE
  - SOFTWARE.
  -->


<svg data-big="true" xmlns="http://www.w3.org/2000/svg" version="1.1" width="16px" height="16px" viewBox="0 0 24 24">
  <path fill="#81C784"
        d="M21.7 20.26L20.29 21.67L17.06 18.5L16 20.97L14 14L21 16L18.47 17.03L21.7 20.26M19 8H5V19H13.41L13.97 21H5C3.89 21 3 20.1 3 19L3 5C3 3.9 3.89 3 5 3H6V1H8V3H16V1H18V3H19C20.1 3 21 3.9 21 5V13.95L19 13.35V8M12 10V15H7V10H12Z"/>
</svg>
